public/assets/img/casestudies/wellmee/Background2.svg

<svg fill="none" height="1629" viewBox="0 0 1440 1629" width="1440" xmlns="http://www.w3.org/2000/svg" xmlns:xlink="http://www.w3.org/1999/xlink"><clipPath id="a"><path d="m0 0h1440v1628.2h-1440z"/></clipPath><g clip-path="url(#a)" fill="#29d2c1"><path d="m1440 1133.06c-5.25-7.53-10.57-15.03-15.95-22.5-241.67-335.348-593.127-573.602-991.376-674.804-61.055-15.515-120.73 25.733-132.246 87.679-11.513 61.945 29.513 121.077 90.415 137.184 340.56 90.073 640.807 295.64 848.147 583.361 85.68 118.88 153.03 248.38 201.01 384.22z"/><path d="m0 208.895v-208.895c423.118 1.41559 834.202 138.336 1173.25 389.863 46.32 34.365 52.41 100.45 15.66 144.907-36.75 44.456-102.41 50.418-148.94 16.343-301.4-220.704-665.398-340.816-1039.97-342.218z"/></g></svg>

<svg width="1440" height="1629" viewBox="0 0 1440 1629" fill="none" xmlns="http://www.w3.org/2000/svg">
<g clip-path="url(#clip0_4106_16864)">
<path d="M1440 1133.06C1434.75 1125.53 1429.43 1118.03 1424.05 1110.56C1182.38 775.212 830.923 536.958 432.674 435.756C371.619 420.241 311.944 461.489 300.428 523.435C288.915 585.38 329.941 644.512 390.843 660.619C731.403 750.692 1031.65 956.259 1238.99 1243.98C1324.67 1362.86 1392.02 1492.36 1440 1628.2V1133.06Z" fill="#29D2C1"/>
<path d="M0 208.895V0C423.118 1.41559 834.202 138.336 1173.25 389.863C1219.57 424.228 1225.66 490.313 1188.91 534.77C1152.16 579.226 1086.5 585.188 1039.97 551.113C738.57 330.409 374.572 210.297 0 208.895Z" fill="#29D2C1"/>
</g>
<defs>
<clipPath id="clip0_4106_16864">
<rect width="1440" height="1628.2" fill="white"/>
</clipPath>
</defs>
</svg>
